addons/inventory-system/icons/recipe.svg

<?xml version="1.0" encoding="UTF-8" standalone="no"?>
<!-- Created with Inkscape (http://www.inkscape.org/) -->

<svg
   width="16"
   height="16"
   viewBox="0 0 4.2333333 4.2333332"
   version="1.1"
   id="svg5"
   inkscape:version="1.2 (dc2aedaf03, 2022-05-15)"
   sodipodi:docname="recipe.svg"
   inkscape:export-filename="icon.png"
   inkscape:export-xdpi="3072"
   inkscape:export-ydpi="3072"
   xmlns:inkscape="http://www.inkscape.org/namespaces/inkscape"
   xmlns:sodipodi="http://sodipodi.sourceforge.net/DTD/sodipodi-0.dtd"
   xmlns="http://www.w3.org/2000/svg"
   xmlns:svg="http://www.w3.org/2000/svg">
  <sodipodi:namedview
     id="namedview7"
     pagecolor="#505050"
     bordercolor="#eeeeee"
     borderopacity="1"
     inkscape:showpageshadow="0"
     inkscape:pageopacity="0"
     inkscape:pagecheckerboard="false"
     inkscape:deskcolor="#505050"
     inkscape:document-units="px"
     showgrid="true"
     showguides="true"
     inkscape:zoom="46.409876"
     inkscape:cx="9.2114015"
     inkscape:cy="8.349516"
     inkscape:window-width="2560"
     inkscape:window-height="1001"
     inkscape:window-x="-9"
     inkscape:window-y="-9"
     inkscape:window-maximized="1"
     inkscape:current-layer="layer1"
     inkscape:lockguides="true">
    <inkscape:grid
       type="xygrid"
       id="grid9001" />
  </sodipodi:namedview>
  <defs
     id="defs2" />
  <g
     inkscape:label="Camada 1"
     inkscape:groupmode="layer"
     id="layer1">
    <path
       id="rect1518"
       style="fill:#ffe337;stroke-width:0.264583;stroke-linecap:round"
       d="M 1.0583333 0.26458333 C 0.7651753 0.26458333 0.52916666 0.50059196 0.52916666 0.79374998 L 0.52916666 2.9104166 C 0.52916666 3.2035747 0.7651753 3.4395833 1.0583333 3.4395833 L 3.1749999 3.4395833 C 3.4681579 3.4395833 3.7041666 3.2035747 3.7041666 2.9104166 L 3.7041666 0.79374998 C 3.7041666 0.50059196 3.4681579 0.26458333 3.1749999 0.26458333 L 1.0583333 0.26458333 z M 2.635498 1.0805542 C 2.735368 1.079325 2.8360772 1.1159789 2.914034 1.1901082 C 2.916514 1.1924682 2.9188387 1.1949129 2.9212687 1.1973429 C 3.076739 1.3528133 3.076739 1.6030786 2.9212687 1.758549 L 2.7342 1.9456176 C 2.6046297 2.0751885 2.4092646 2.0971299 2.2577433 2.0107299 L 1.4055989 2.8623575 C 1.3537753 2.9141805 1.2749898 2.918817 1.2283488 2.8721761 C 1.1817074 2.8255349 1.1853099 2.7457163 1.2371338 2.6938924 L 2.0949625 1.8365804 C 2.0241774 1.6890306 2.0503815 1.5070239 2.1729939 1.3844116 L 2.3600626 1.1973429 C 2.4365832 1.1208223 2.535628 1.0817834 2.635498 1.0805542 z " />
    <rect
       style="fill:#ffffff;stroke:#ffffff;stroke-width:2;stroke-dasharray:none;stroke-opacity:1"
       id="rect1793"
       height="3.1241555"
       x="6.2711148"
       y="7.7305741"
       rx="2"
       ry="2"
       width="0" />
    <rect
       style="fill:none;stroke:#ffffff;stroke-width:0.529167;stroke-linecap:round;stroke-linejoin:round;stroke-dasharray:none;stroke-opacity:1"
       id="rect6022"
       x="1.3544916"
       y="1.4189913" />
    <rect
       style="fill:#ffe337;fill-opacity:1;stroke-width:0.264583;stroke-linecap:round"
       id="rect648"
       width="3.175"
       height="0.26458341"
       x="0.52916664"
       y="3.7041667"
       rx="0.13229166"
       ry="0.1322917" />
    <path
       id="rect1589"
       style="fill:#ffe337;fill-opacity:1;stroke-width:0.264583;stroke-linecap:round"
       d="M 0.52916666 2.6458333 L 0.52916666 3.8364583 L 0.79374998 3.8364583 L 1.0583333 3.8364583 L 1.0583333 3.7041666 L 0.92604165 3.7041666 C 0.85275214 3.7041666 0.79374998 3.6451645 0.79374998 3.5718749 C 0.79374998 3.4985854 0.85275214 3.4395833 0.92604165 3.4395833 L 1.0583333 3.4395833 L 1.0583333 2.6458333 L 0.79374998 2.6458333 L 0.52916666 2.6458333 z " />
    <g
       id="g1599"
       transform="translate(1.0847919)" />
  </g>
</svg>

<?xml version="1.0" encoding="UTF-8"?>
<!-- Created with Inkscape (http://www.inkscape.org/) -->
<svg width="16" height="16" version="1.1" viewBox="0 0 4.2333 4.2333" xmlns="http://www.w3.org/2000/svg">
 <path d="m1.0583 0.26458c-0.29316 0-0.52917 0.23601-0.52917 0.52917v2.1167c0 0.29316 0.23601 0.52917 0.52917 0.52917h2.1167c0.29316 0 0.52917-0.23601 0.52917-0.52917v-2.1167c0-0.29316-0.23601-0.52917-0.52917-0.52917h-2.1167zm1.5772 0.81597c0.09987-0.0012292 0.20058 0.035425 0.27854 0.10955 0.00248 0.00236 0.0048047 0.0048047 0.0072347 0.0072347 0.15547 0.15547 0.15547 0.40574 0 0.56121l-0.18707 0.18707c-0.12957 0.12957-0.32494 0.15151-0.47646 0.065112l-0.85214 0.85163c-0.051824 0.051823-0.13061 0.05646-0.17725 0.0098186-0.046641-0.046641-0.043039-0.12646 0.008785-0.17828l0.85783-0.85731c-0.070785-0.14755-0.044581-0.32956 0.078031-0.45217l0.18707-0.18707c0.076521-0.076521 0.17557-0.11556 0.27544-0.11679z" fill="#35d4f4" stroke-linecap="round" stroke-width=".26458"/>
 <rect x="6.2711" y="7.7306" width="0" height="3.1242" rx="2" ry="2" fill="#fff" stroke="#fff" stroke-width="2"/>
 <g stroke-linecap="round">
  <rect x="1.3545" y="1.419" fill="none" stroke="#fff" stroke-linejoin="round" stroke-width=".52917"/>
  <rect x=".52917" y="3.7042" width="3.175" height=".26458" rx=".13229" ry=".13229" fill="#35d4f4" stroke-width=".26458"/>
  <path d="m0.52917 2.6458v1.1906h0.26458 0.26458v-0.13229h-0.13229c-0.07329 0-0.13229-0.059002-0.13229-0.13229 0-0.07329 0.059002-0.13229 0.13229-0.13229h0.13229v-0.79375h-0.26458-0.26458z" fill="#35d4f4" stroke-width=".26458"/>
 </g>
</svg>
